!!!COM: Martinů, Bohuslav (Jan)
!!!OTL: [T513_Mau-w102p12m6-1h9m1-2]
**kern	**dynam	**kern	**dynam	**kern	**dynam	**kern	**dynam	**kern	**dynam	**kern	**dynam	**kern	**dynam	**kern	**dynam
*grp:A	*	*grp:A	*	*grp:A	*	*grp:A	*	*grp:A	*	*grp:B	*	*grp:B	*	*grp:A	*
*part8	*part8	*part7	*part7	*part6	*part6	*part5	*part5	*part4	*part4	*part3	*part3	*part2	*part2	*part1	*part1
*staff8	*	*staff7	*	*staff6	*	*staff5	*	*staff4	*	*staff3	*	*staff2	*	*staff1	*
*I"Contrabass	*	*I"Violoncello	*	*I"Viola	*	*I"Violin II	*	*I"Violin I	*	*I"Horn in F	*	*I"Oboe	*	*I"Flute	*
*I'Cb.	*	*I'Vc.	*	*I'Vla.	*	*I'Vln. II	*	*I'Vln. I	*	*I'Hn. I + II	*	*I'Ob. I + II	*	*I'Fl. I + II	*
*clefF4	*	*clefF4	*	*clefG2	*	*clefG2	*	*clefG2	*	*clefG2	*	*clefG2	*	*clefG2	*
*ITrd7c12	*	*	*	*	*	*	*	*	*	*ITrd4c7	*	*	*	*	*
*k[]	*	*k[]	*	*k[]	*	*k[]	*	*k[]	*	*k[b-]	*	*k[]	*	*k[]	*
*C:	*	*C:	*	*C:	*	*C:	*	*C:	*	*F:	*	*C:	*	*C:	*
*M4/4	*	*M4/4	*	*M4/4	*	*M4/4	*	*M4/4	*	*M4/4	*	*M4/4	*	*M4/4	*
*	*	*	*	*	*	*	*	*8va	*	*	*	*	*	*	*
=1	=1	=1	=1	=1	=1	=1	=1	=1	=1	=1	=1	=1	=1	=1	=1
!	!	!	!	!	!	!	!	!LO:TX:t=[quarter]=144	!	!	!	!	!	!LO:TX:a:B:t=Poco Meno	!
!	!	!	!	!	!LO:DY:b:i:t=%s espress.	!	!LO:DY:b:i:t=%s espress.	!LO:TX:a:B:t=Poco Meno	!LO:DY:b:i:t=%s espress.	!	!	!	!	!LO:TX:a:t=[quarter]=144	!
4.ryy	4ryy	4.ryy	4ryy	4.ryy	4ryy	4.ryy	4ryy	4.ryy	4ryy	1r	.	1r	.	1ryy	.
8ryy	.	8ryy	.	8ryy	.	8ryy	.	8ryy	.	.	.	.	.	.	.
4ryy	.	4ryy	.	4ryy	.	4ryy	.	4ryy	.	.	.	.	.	.	.
4ryy	.	4ryy	.	4ryy	.	4ryy	.	4ryy	.	.	.	.	.	.	.
=2	=2	=2	=2	=2	=2	=2	=2	=2	=2	=2	=2	=2	=2	=2	=2
2ryy	.	2ryy	.	8ryy	.	8ryy	.	8ryy	.	1r	.	1r	.	1ryy	.
.	.	.	.	4ryy	.	4ryy	.	4ryy	.	.	.	.	.	.	.
.	.	.	.	4ryy	.	4ryy	.	4ryy	.	.	.	.	.	.	.
*grp:B	*	*grp:B	*	*	*	*	*	*	*	*	*	*	*	*	*
4DD~	.	4D~	.	.	.	.	.	.	.	.	.	.	.	.	.
.	.	.	.	4ryy	.	4ryy	.	4ryy	.	.	.	.	.	.	.
(<4CC	.	(4C	.	.	.	.	.	.	.	.	.	.	.	.	.
.	.	.	.	8ryy	.	8ryy	.	8ryy	.	.	.	.	.	.	.
=3	=3	=3	=3	=3	=3	=3	=3	=3	=3	=3	=3	=3	=3	=3	=3
4FF)	.	4F)	.	8ryy	.	8ryy	.	8ryy	.	1r	.	1r	.	1ryy	.
.	.	.	.	4ryy	.	4ryy	.	4ryy	.	.	.	.	.	.	.
(8EE-X	.	(8E-X	.	.	.	.	.	.	.	.	.	.	.	.	.
4GG-X)	.	4G-X)	.	8ryy	.	8ryy	.	8ryy	.	.	.	.	.	.	.
.	.	.	.	4.ryy	.	4.ryy	.	4.ryy	.	.	.	.	.	.	.
[8FF	.	[8F	.	.	.	.	.	.	.	.	.	.	.	.	.
4FF_	.	4F_	.	.	.	.	.	.	.	.	.	.	.	.	.
.	.	.	.	8ryy	.	8ryy	.	8ryy	.	.	.	.	.	.	.
=4	=4	=4	=4	=4	=4	=4	=4	=4	=4	=4	=4	=4	=4	=4	=4
2FF_	.	2F_	.	8ryy	.	8ryy	.	8ryy	.	1r	.	1r	.	1ryy	.
.	.	.	.	8ryy	.	8ryy	.	8ryy	.	.	.	.	.	.	.
.	.	.	.	4ryy	.	4ryy	.	4ryy	.	.	.	.	.	.	.
4.FF]	.	4.F]	.	4.ryy	.	4.ryy	.	4.ryy	.	.	.	.	.	.	.
[8CC	.	[8CC	.	8ryy	.	8ryy	.	8ryy	.	.	.	.	.	.	.
=5	=5	=5	=5	=5	=5	=5	=5	=5	=5	=5	=5	=5	=5	=5	=5
!	!	!	!	!	!	!	!	!	!	!LO:TX:a:rj:t=a2	!	!	!	!	!
8CC]	.	8CCL]	.	8ryy	.	8ryy	.	8ryy	.	[1d	4ryy	1r	.	1ryy	.
4.DD	.	(8DDJ	.	4ryy	.	4ryy	.	4ryy	.	.	.	.	.	.	.
.	.	4D)/	.	.	.	.	.	.	.	.	.	.	.	.	.
.	.	.	.	4ryy	.	4ryy	.	4ryy	.	.	.	.	.	.	.
(8EE	.	(8E	.	.	.	.	.	.	.	.	.	.	.	.	.
4AA)	.	4A)	.	8ryy	.	8ryy	.	8ryy	.	.	.	.	.	.	.
.	.	.	.	4ryy	.	4ryy	.	4ryy	.	.	.	.	.	.	.
(8GG	.	(8G	.	.	.	.	.	.	.	.	.	.	.	.	.
=6	=6	=6	=6	=6	=6	=6	=6	=6	=6	=6	=6	=6	=6	=6	=6
4BB-X)	.	4B-X)	.	4ryy	.	4ryy	.	4ryy	.	1d]	.	1r	.	2ryy	.
(8AA	.	(8A	.	4ryy	.	4ryy	.	4ryy	.	.	.	.	.	.	.
4C)	.	4c)	.	.	.	.	.	.	.	.	.	.	.	.	.
.	.	.	.	8ryy	.	8ryy	.	8ryy	.	.	.	.	.	4ryy	.
(8BB-	.	(8B-	.	4ryy	.	4ryy	.	4ryy	.	.	.	.	.	.	.
[4D)	.	[4d)	.	.	.	.	.	.	.	.	.	.	.	8ryy	.
!	!	!	!	!	!	!	!	!	!	!	!	!	!	!LO:TX:rj:a:t=a2	!
.	.	.	.	8ryy	.	8ryy	.	8ryy	.	.	.	.	.	8ryy	4ryy
!!LO:REH:t=9
=7	=7	=7	=7	=7	=7	=7	=7	=7	=7	=7	=7	=7	=7	=7	=7
1D]	.	8d]	.	8ryy	.	8ryy	.	8ryy	.	[1d	.	[1dd [1ddd	4ryy	8ryy	.
*	*	*clefG2	*	*	*	*	*	*	*	*	*	*	*	*	*
*	*	*grp:A	*	*	*	*	*	*	*	*	*	*	*	*	*
!	!	!LO:TX:a:t=div.	!	!	!	!	!	!	!	!	!	!	!	!	!
.	.	4ryy	.	4ryy	.	4ryy	.	4ryy	.	.	.	.	.	4ryy	.
.	.	8ryy	.	8ryy	.	8ryy	.	8ryy	.	.	.	.	.	8ryy	.
.	.	4ryy	.	4ryy	.	4ryy	.	4ryy	.	.	.	.	.	4ryy	.
.	.	4ryy	.	8ryy	.	8ryy	.	8ryy	.	.	.	.	.	8ryy	.
.	.	.	.	8ryy	.	8ryy	.	8ryy	.	.	.	.	.	8ryy	.
=8	=8	=8	=8	=8	=8	=8	=8	=8	=8	=8	=8	=8	=8	=8	=8
1DD	.	8ryy	.	8ryy	.	8ryy	.	8ryy	.	2.d]	.	2.dd] 2.ddd]	.	8ryy	.
.	.	4ryy	.	4ryy	.	4ryy	.	4ryy	.	.	.	.	.	4ryy	.
.	.	8ryy	.	8ryy	.	8ryy	.	8ryy	.	.	.	.	.	8ryy	.
.	.	8ryy	.	8ryy	.	8ryy	.	8ryy	.	.	.	.	.	8ryy	.
.	.	8ryy	.	8ryy	.	8ryy	.	8ryy	.	.	.	.	.	8ryy	.
.	.	4ryy	.	4ryy	.	4ryy	.	4ryy	.	([4c#Xi	.	[4cc#X [4ccc#X	.	4ryy	.
*	*	*	*	*	*	*	*	*X8va	*	*	*	*	*	*	*
=	=	=	=	=	=	=	=	=	=	=	=	=	=	=	=
*-	*-	*-	*-	*-	*-	*-	*-	*-	*-	*-	*-	*-	*-	*-	*-
!!!system-decoration: [(s1,s2)][(s3)][(s4,s5,s6,s7,s8)]
!!!RDF**kern: < = below
!!!RDF**kern: > = above
!!!RDF**kern: i = marked note, color="hotpink", text="extra("
!!!RDF**kern: j = marked note, color="magenta", text="extra)"
!!!EED:Jason Lee
!!!EEV:2021/11/18
